X: 1
T: Sandie Ower the Sea
T: Sandy Over the Sea
C: J. Scott Skinner
T: J.S. Skinner "The Scottish Violinist" p.35#4
O: From Logie Collection.
Z: 2017 John Chambers <jc:trillian.mit.edu>
R: air
M: C
L: 1/4
K: G
(D |\
"G"d)B .A.G | "Am"AG ED | "C"(E<G)  "D7"G>{B}A | "G"G3 B |\
"Am"({B}c>B) (cA) |  "G"dB G.D | "A7"(EA) (A>B) | "D7"A3 A |
"G"B(.B "(Em)".B.B) | "Am"c(.c "(D7)".c.c) | "G"dB AG | "C"e3 e |\
"G"dg fe | "Bm"dB "Em"G>D | "C"(.E.G) "D7"(G>A) | "G"G3 |]
